images/logo4.svg

<svg width="170" height="90" viewBox="0 0 170 90" fill="none" xmlns="http://www.w3.org/2000/svg">
<rect x="0.5" y="0.5" width="169" height="89" rx="3.5" stroke="#AFB1B8"/>
<path d="M57.4022 36.8306H57.3995C55.1372 36.8306 53.3032 38.6177 53.3032 40.8223V40.8249C53.3032 43.0295 55.1372 44.8167 57.3995 44.8167H57.4022C59.6645 44.8167 61.4985 43.0295 61.4985 40.8249V40.8223C61.4985 38.6177 59.6645 36.8306 57.4022 36.8306Z" fill="#AFB1B8"/>
<path d="M87.6368 35.5545C87.6304 32.4924 86.3795 29.5575 84.1579 27.3921C81.9363 25.2266 78.925 24.007 75.7828 24V24C72.6397 24.0056 69.6269 25.2246 67.4041 27.3902C65.1814 29.5558 63.9298 32.4915 63.9233 35.5545V52.4402C63.9233 52.4402 87.6341 49.8667 87.6368 35.5571V35.5545Z" fill="#AFB1B8"/>
<path d="M45 57.9823C45.0057 60.1129 45.8766 62.1547 47.4223 63.6615C48.968 65.1683 51.0629 66.0177 53.2492 66.0239C55.4351 66.0177 57.5296 65.1687 59.0752 63.6625C60.6209 62.1562 61.492 60.1151 61.4985 57.9849V46.2356C61.4985 46.2356 45 48.0276 45 57.9823ZM53.2492 60.0874C52.822 60.0874 52.4043 59.964 52.0491 59.7326C51.6938 59.5013 51.417 59.1726 51.2535 58.7879C51.09 58.4032 51.0472 57.98 51.1305 57.5716C51.2139 57.1632 51.4196 56.7881 51.7217 56.4937C52.0239 56.1993 52.4088 55.9988 52.8278 55.9176C53.2468 55.8364 53.6812 55.8781 54.0759 56.0374C54.4706 56.1967 54.808 56.4665 55.0454 56.8127C55.2827 57.1589 55.4094 57.5659 55.4094 57.9823C55.4105 58.2594 55.3554 58.534 55.2473 58.7903C55.1392 59.0466 54.9803 59.2796 54.7796 59.476C54.5789 59.6723 54.3404 59.828 54.0778 59.9343C53.8152 60.0406 53.5336 60.0953 53.2492 60.0953V60.0874Z" fill="#AFB1B8"/>
<path d="M70.0894 58.7812H68.4019V60.5244H67.5229V56.2588H70.3003V56.9707H68.4019V58.0723H70.0894V58.7812ZM74.314 58.4883C74.314 58.9082 74.2397 59.2764 74.0913 59.5928C73.9429 59.9092 73.73 60.1533 73.4526 60.3252C73.1772 60.4971 72.8608 60.583 72.5034 60.583C72.1499 60.583 71.8345 60.498 71.5571 60.3281C71.2798 60.1582 71.0649 59.916 70.9126 59.6016C70.7603 59.2852 70.6831 58.9219 70.6812 58.5117V58.3008C70.6812 57.8809 70.7563 57.5117 70.9067 57.1934C71.0591 56.873 71.2729 56.6279 71.5483 56.458C71.8257 56.2861 72.1421 56.2002 72.4976 56.2002C72.853 56.2002 73.1685 56.2861 73.4438 56.458C73.7212 56.6279 73.9351 56.873 74.0854 57.1934C74.2378 57.5117 74.314 57.8799 74.314 58.2979V58.4883ZM73.4233 58.2949C73.4233 57.8477 73.3433 57.5078 73.1831 57.2754C73.0229 57.043 72.7944 56.9268 72.4976 56.9268C72.2026 56.9268 71.9751 57.042 71.8149 57.2725C71.6548 57.501 71.5737 57.8369 71.5718 58.2803V58.4883C71.5718 58.9238 71.6519 59.2617 71.812 59.502C71.9722 59.7422 72.2026 59.8623 72.5034 59.8623C72.7983 59.8623 73.0249 59.7471 73.1831 59.5166C73.3413 59.2842 73.4214 58.9463 73.4233 58.5029V58.2949ZM77.1646 59.4053C77.1646 59.2393 77.106 59.1123 76.9888 59.0244C76.8716 58.9346 76.6606 58.8408 76.356 58.7432C76.0513 58.6436 75.8101 58.5459 75.6323 58.4502C75.1479 58.1885 74.9058 57.8359 74.9058 57.3926C74.9058 57.1621 74.9702 56.957 75.0991 56.7773C75.23 56.5957 75.4165 56.4541 75.6587 56.3525C75.9028 56.251 76.1763 56.2002 76.479 56.2002C76.7837 56.2002 77.0552 56.2559 77.2935 56.3672C77.5317 56.4766 77.7163 56.6318 77.8472 56.833C77.98 57.0342 78.0464 57.2627 78.0464 57.5186H77.1675C77.1675 57.3232 77.106 57.1719 76.9829 57.0645C76.8599 56.9551 76.687 56.9004 76.4644 56.9004C76.2495 56.9004 76.0825 56.9463 75.9634 57.0381C75.8442 57.1279 75.7847 57.2471 75.7847 57.3955C75.7847 57.5342 75.854 57.6504 75.9927 57.7441C76.1333 57.8379 76.3394 57.9258 76.6108 58.0078C77.1108 58.1582 77.4751 58.3447 77.7036 58.5674C77.9321 58.79 78.0464 59.0674 78.0464 59.3994C78.0464 59.7686 77.9067 60.0586 77.6274 60.2695C77.3481 60.4785 76.9722 60.583 76.4995 60.583C76.1714 60.583 75.8726 60.5234 75.603 60.4043C75.3335 60.2832 75.1274 60.1182 74.9849 59.9092C74.8442 59.7002 74.7739 59.458 74.7739 59.1826H75.6558C75.6558 59.6533 75.937 59.8887 76.4995 59.8887C76.7085 59.8887 76.8716 59.8467 76.9888 59.7627C77.106 59.6768 77.1646 59.5576 77.1646 59.4053ZM81.855 56.9707H80.5483V60.5244H79.6694V56.9707H78.3804V56.2588H81.855V56.9707ZM84.9253 58.6758H83.2378V59.8184H85.2183V60.5244H82.3589V56.2588H85.2124V56.9707H83.2378V57.9873H84.9253V58.6758ZM87.313 58.9629H86.6128V60.5244H85.7339V56.2588H87.3188C87.8228 56.2588 88.2114 56.3711 88.4849 56.5957C88.7583 56.8203 88.895 57.1377 88.895 57.5479C88.895 57.8389 88.8315 58.082 88.7046 58.2773C88.5796 58.4707 88.3892 58.625 88.1333 58.7402L89.0562 60.4834V60.5244H88.1128L87.313 58.9629ZM86.6128 58.251H87.3218C87.5425 58.251 87.7134 58.1953 87.8345 58.084C87.9556 57.9707 88.0161 57.8154 88.0161 57.6182C88.0161 57.417 87.9585 57.2588 87.8433 57.1436C87.73 57.0283 87.5552 56.9707 87.3188 56.9707H86.6128V58.251ZM91.939 59.0215V60.5244H91.0601V56.2588H92.7241C93.0444 56.2588 93.3257 56.3174 93.5679 56.4346C93.812 56.5518 93.9995 56.7188 94.1304 56.9355C94.2612 57.1504 94.3267 57.3955 94.3267 57.6709C94.3267 58.0889 94.1831 58.4189 93.896 58.6611C93.6108 58.9014 93.2153 59.0215 92.7095 59.0215H91.939ZM91.939 58.3096H92.7241C92.9565 58.3096 93.1333 58.2549 93.2544 58.1455C93.3774 58.0361 93.439 57.8799 93.439 57.6768C93.439 57.4678 93.3774 57.2988 93.2544 57.1699C93.1313 57.041 92.9614 56.9746 92.7446 56.9707H91.939V58.3096ZM97.4995 58.6758H95.812V59.8184H97.7925V60.5244H94.9331V56.2588H97.7866V56.9707H95.812V57.9873H97.4995V58.6758ZM101.578 56.9707H100.271V60.5244H99.3921V56.9707H98.103V56.2588H101.578V56.9707ZM104.648 58.6758H102.96V59.8184H104.941V60.5244H102.082V56.2588H104.935V56.9707H102.96V57.9873H104.648V58.6758ZM107.036 58.9629H106.335V60.5244H105.457V56.2588H107.042C107.545 56.2588 107.934 56.3711 108.208 56.5957C108.481 56.8203 108.618 57.1377 108.618 57.5479C108.618 57.8389 108.554 58.082 108.427 58.2773C108.302 58.4707 108.112 58.625 107.856 58.7402L108.779 60.4834V60.5244H107.835L107.036 58.9629ZM106.335 58.251H107.044C107.265 58.251 107.436 58.1953 107.557 58.084C107.678 57.9707 107.739 57.8154 107.739 57.6182C107.739 57.417 107.681 57.2588 107.566 57.1436C107.453 57.0283 107.278 56.9707 107.042 56.9707H106.335V58.251ZM111.5 59.4053C111.5 59.2393 111.442 59.1123 111.325 59.0244C111.208 58.9346 110.997 58.8408 110.692 58.7432C110.387 58.6436 110.146 58.5459 109.968 58.4502C109.484 58.1885 109.242 57.8359 109.242 57.3926C109.242 57.1621 109.306 56.957 109.435 56.7773C109.566 56.5957 109.752 56.4541 109.995 56.3525C110.239 56.251 110.512 56.2002 110.815 56.2002C111.12 56.2002 111.391 56.2559 111.629 56.3672C111.868 56.4766 112.052 56.6318 112.183 56.833C112.316 57.0342 112.382 57.2627 112.382 57.5186H111.503C111.503 57.3232 111.442 57.1719 111.319 57.0645C111.196 56.9551 111.023 56.9004 110.8 56.9004C110.585 56.9004 110.418 56.9463 110.299 57.0381C110.18 57.1279 110.121 57.2471 110.121 57.3955C110.121 57.5342 110.19 57.6504 110.329 57.7441C110.469 57.8379 110.675 57.9258 110.947 58.0078C111.447 58.1582 111.811 58.3447 112.04 58.5674C112.268 58.79 112.382 59.0674 112.382 59.3994C112.382 59.7686 112.243 60.0586 111.963 60.2695C111.684 60.4785 111.308 60.583 110.835 60.583C110.507 60.583 110.208 60.5234 109.939 60.4043C109.669 60.2832 109.463 60.1182 109.321 59.9092C109.18 59.7002 109.11 59.458 109.11 59.1826H109.992C109.992 59.6533 110.273 59.8887 110.835 59.8887C111.044 59.8887 111.208 59.8467 111.325 59.7627C111.442 59.6768 111.5 59.5576 111.5 59.4053Z" fill="#AFB1B8"/>
</svg>

<svg width="170" height="90" fill="none" xmlns="http://www.w3.org/2000/svg"><rect x=".5" y=".5" width="169" height="89" rx="3.5" stroke="#AFB1B8"/><path d="M57.402 36.83H57.4c-2.263 0-4.097 1.788-4.097 3.992v.003c0 2.204 1.834 3.992 4.097 3.992h.002c2.262 0 4.096-1.788 4.096-3.992v-.003c0-2.204-1.834-3.991-4.096-3.991zM87.637 35.554c-.007-3.062-1.258-5.997-3.48-8.162-2.22-2.165-5.232-3.385-8.374-3.392-3.143.006-6.156 1.225-8.379 3.39-2.223 2.166-3.474 5.102-3.48 8.164V52.44s23.71-2.573 23.713-16.883v-.003zM45 57.982a7.96 7.96 0 002.422 5.68 8.384 8.384 0 005.827 2.362 8.384 8.384 0 005.826-2.361 7.96 7.96 0 002.423-5.678v-11.75S45 48.029 45 57.983zm8.25 2.105a2.2 2.2 0 01-1.2-.354 2.117 2.117 0 01-.796-.945 2.056 2.056 0 01-.123-1.216 2.09 2.09 0 01.59-1.078 2.179 2.179 0 011.107-.576c.419-.082.853-.04 1.248.12.395.159.732.429.97.775a2.068 2.068 0 01.201 1.977c-.108.257-.267.49-.467.686-.201.196-.44.352-.702.458a2.21 2.21 0 01-.829.161v-.008zM70.09 58.781h-1.688v1.743h-.88V56.26H70.3v.712h-1.898v1.101h1.687v.71zm4.224-.293c0 .42-.074.788-.223 1.105-.148.316-.361.56-.638.732a1.755 1.755 0 01-.95.258c-.353 0-.668-.085-.946-.255a1.695 1.695 0 01-.644-.726 2.511 2.511 0 01-.232-1.09V58.3c0-.42.075-.79.226-1.108.152-.32.366-.565.641-.735.278-.172.594-.258.95-.258.355 0 .67.086.946.258.277.17.491.415.641.735.153.319.229.687.229 1.105v.19zm-.89-.193c0-.447-.08-.787-.24-1.02a.783.783 0 00-.686-.348.782.782 0 00-.683.346c-.16.228-.241.564-.243 1.007v.208c0 .436.08.774.24 1.014.16.24.39.36.691.36a.775.775 0 00.68-.345c.158-.233.238-.57.24-1.014v-.208zm3.74 1.11a.447.447 0 00-.175-.38c-.117-.09-.328-.184-.633-.282a4.565 4.565 0 01-.724-.293c-.484-.262-.726-.614-.726-1.057 0-.23.064-.436.193-.616.131-.181.317-.323.56-.425.244-.101.517-.152.82-.152.305 0 .576.056.814.167.239.11.423.265.554.466.133.201.2.43.2.686h-.88c0-.196-.061-.347-.184-.454-.123-.11-.296-.165-.519-.165-.215 0-.382.046-.5.138a.426.426 0 00-.18.358c0 .138.07.254.209.348.14.094.346.182.618.264.5.15.864.337 1.093.56.228.222.342.5.342.831 0 .37-.14.66-.419.87-.279.21-.655.314-1.127.314-.329 0-.627-.06-.897-.179a1.438 1.438 0 01-.618-.495 1.27 1.27 0 01-.211-.726h.882c0 .47.281.706.843.706.21 0 .373-.042.49-.126a.418.418 0 00.176-.358zm4.691-2.434h-1.307v3.553h-.879v-3.553H78.38v-.712h3.475v.712zm3.07 1.705h-1.687v1.142h1.98v.706h-2.86V56.26h2.854v.712h-1.974v1.016h1.687v.689zm2.388.287h-.7v1.561h-.88V56.26h1.586c.504 0 .892.112 1.166.337.273.224.41.542.41.952 0 .29-.063.534-.19.73a1.282 1.282 0 01-.572.462l.923 1.743v.041h-.943l-.8-1.561zm-.7-.712h.709c.22 0 .391-.056.513-.167a.607.607 0 00.181-.466c0-.201-.058-.36-.173-.474-.113-.116-.288-.173-.524-.173h-.706v1.28zm5.326.77v1.503h-.879V56.26h1.664c.32 0 .602.058.844.176.244.117.431.284.562.5.131.215.197.46.197.736 0 .418-.144.748-.431.99-.285.24-.68.36-1.186.36h-.771zm0-.711h.785c.233 0 .41-.055.53-.165.123-.109.185-.265.185-.468a.704.704 0 00-.185-.507c-.123-.129-.293-.195-.51-.2h-.805v1.34zm5.56.366h-1.687v1.142h1.98v.706h-2.859V56.26h2.854v.712h-1.975v1.016H97.5v.689zm4.079-1.705h-1.307v3.553h-.879v-3.553h-1.289v-.712h3.475v.712zm3.07 1.705h-1.688v1.142h1.981v.706h-2.859V56.26h2.853v.712h-1.975v1.016h1.688v.689zm2.388.287h-.701v1.561h-.878V56.26h1.585c.503 0 .892.112 1.166.337.273.224.41.542.41.952 0 .29-.064.534-.191.73a1.28 1.28 0 01-.571.462l.923 1.743v.041h-.944l-.799-1.561zm-.701-.712h.709c.221 0 .392-.056.513-.167a.607.607 0 00.182-.466c0-.201-.058-.36-.173-.474-.113-.116-.288-.173-.524-.173h-.707v1.28zm5.165 1.154a.447.447 0 00-.175-.38c-.117-.09-.328-.184-.633-.282a4.566 4.566 0 01-.724-.293c-.484-.262-.726-.614-.726-1.057 0-.23.064-.436.193-.616.131-.181.317-.323.56-.425.244-.101.517-.152.82-.152a1.9 1.9 0 01.814.167c.239.11.423.265.554.466.133.201.199.43.199.686h-.879c0-.196-.061-.347-.184-.454-.123-.11-.296-.165-.519-.165-.215 0-.382.046-.501.138a.425.425 0 00-.178.358c0 .138.069.254.208.348.14.094.346.182.618.264.5.15.864.337 1.093.56.228.222.342.5.342.831 0 .37-.139.66-.419.87-.279.21-.655.314-1.128.314a2.19 2.19 0 01-.896-.179 1.432 1.432 0 01-.618-.495 1.268 1.268 0 01-.211-.726h.882c0 .47.281.706.843.706.209 0 .373-.042.49-.126a.418.418 0 00.175-.358z" fill="#AFB1B8"/></svg>
